X: 19495
T: Jackson's Slipper
R: jig
M: 6/8
K: Gmajor
~G3 BAG|dBG BAG|ABA AB/c/d|ecA AGE|
~G3 BAG|dBG BAG|AGA BdB|1 GEE E2D:|2 GEE E2d||
efg fed|efg dBG|ABA AB/c/d|ecA A2d|
efg fed|efg dBG|AGA BAB|GEE E2d|
efg fed|efg dBG|ABA AB/c/d|ecA A2a|
bag agf|gfe dBG|AGA BAB|GEE E2d||

